X:497
%%topmargin 3cm
T:Sandy King
C:Arranged by K. N. Macdonald
C:Pipe tune
O:Scotland
B:Keith Norman MacDonald : "The Skye collection of the best reels & strathspeys extant" : 1887
Z:Ralph Palmer
R:Strathspey
M:C
L:1/8
K:A
(c/d/)eg>e a>eg>e | (c/d/)eg>e a>e f2 | (c/d/)eg>e a/g/fec | d>fc>a BAe>c e>AA<a | e>Ae>c B<c f2 |
e>Ae>c e>AAa | d<fe>c B<c f2 | e>Ae>c e>AAa | e>Ae>c B<c f2 | e>Ae>c f>de>c | d>fc>a B<B f2 :|
W:
W:From Ross's Collection.
